X: 1
T: the Tulla Reel
T: the Humors of Tulla
R: Reel
Z: 2006 John Chambers <jc:trillian.mit.edu>
S: printed page of unknown origin
M: C|
L: 1/8
K: D
   fe | d2Ad  BdAB  | d2fd  edBc | d2Ad  BdAd | (3Bcd ef g2 :|
|: fg | af~f2 df~f2 | af~f2 gee2 | af~f2 dfed | (3Bcd ef g2 :|
